X:1
T:Title
%%score { 1 | ( 2 3 ) }
L:1/8
M:4/4
K:G
V:1 treble nm="Grand Piano"
V:2 bass 
V:3 bass 
V:1
 z4 z2[Q:1/4=112] [B,G]2 | [DB]3 [CA] [B,G]2 [DG]2 | A2 G2 E4 | [B,D]2 [B,G]2 [DG]2 [DB]2 | %4
 [DA]6 [B,G]2 | [DB]3 [CA] [B,G]2 [DG]2 | A2 G2 E4 | D2 [B,DG]2 [CDA]3 [B,DG] | [B,DG]6 B2 | %9
 d3 B B2 [DG]2 | E2 G2 D2 G2 | A3 A [DG]2 A2 |[M:5/4] B2 [^CB]2 [DA]6 | %13
[M:4/4] [DB]3 [DG] [EA]2 .[DA]2 |[M:3/4] [G,B,G]6 |] %15
V:2
 z4 z2 [G,,G,]2 | [G,,G,]3 [G,,G,] [G,,G,]2 [B,,G,]2 | [C,E,C]2 [C,E,C]2 [C,G,C]4 | %3
 [G,,G,]2 [G,,G,]2 [B,,G,]2 [G,,G,]2 | [D,F,]6 [G,,G,]2 | [G,,G,]3 [G,,G,] [G,,G,]2 [B,,G,]2 | %6
 [C,E,C]2 [C,E,C]2 [C,G,C]4 | [B,,G,]2 G,,2 D,3 G,, | G,,6 [G,D]2 | %9
 [G,B,D]3 [G,D] [G,D]2 [B,,G,]2 | [C,G,C]2 [E,G,C]2 [G,B,]2 [G,B,]2 | %11
 [D,F,D]3 [D,F,D] [B,,G,]2 [D,F,D]2 |[M:5/4] [G,D]2 [A,,G,]2 [D,F,]6 | %13
[M:4/4] [G,,G,]3 [B,,G,] [C,G,]2 z C |[M:3/4] G,,6 |] %15
V:3
 x8 | x8 | x8 | x8 | x8 | x8 | x8 | x8 | x8 | x8 | x8 | x8 |[M:5/4] x10 |[M:4/4] z4 z2 [D,F,]2 | %14
[M:3/4] x6 |] %15

